digital/Imbassy-X-Files/65ef0811cc67439994568a45/65ef0811cc6743999456901c_Frame-3.svg

<svg fill="none" height="24" viewBox="0 0 24 24" width="24" xmlns="http://www.w3.org/2000/svg"><path d="m3.2957 20.6025 6.364-6.364m0 0c-.13934-.1393-.24987-.3046-.32531-.4866-.07543-.182-.11427-.3771-.11432-.5741s.03871-.392.11405-.5741c.07535-.182.18581-.3474.32508-.4867.13926-.1394.30461-.2499.4866-.3253.182-.0755.377-.1143.574-.1143.197-.0001.3921.0387.5741.114.1821.0754.3475.1858.4868.3251.2814.2812.4395.6628.4396 1.0606.0001.3979-.1578.7795-.4391 1.0609s-.6628.4395-1.0606.4396c-.3979.0001-.77951-.1579-1.0609-.4391zm8.132-3.182 2.828-2.82902c.3749-.37506.5856-.88367.5856-1.414s-.2107-1.03895-.5856-1.414l-2.12-2.122c-.1857-.1858-.4062-.3332-.649-.43376-.2427-.10056-.5028-.15231-.7655-.15231s-.5229.05175-.7656.15231-.4632.24796-.6489.43376l-2.828 2.829m4.831 5.30202-1.905 5.715c-.0304.0916-.0825.1745-.1517.2417-.0693.0672-.1538.1167-.2463.1443l-11.678 3.471c-.10521.0312-.21698.033-.32313.0052-.10616-.0279-.20264-.0843-.27895-.1632-.0763-.0789-.12951-.1772-.15383-.2842-.02432-.1071-.01882-.2187.01591-.3228l3.792-11.37402c.02717-.08167.0716-.15653.13027-.21951.05866-.06298.13019-.1126.20973-.14549l5.387-2.218c.1095-.04523.23-.05702.3462-.03389.1162.02314.223.08016.3068.16389l4.404 4.40502c.079.0789.1344.1782.16.2868.0256.1087.0204.2223-.015.3282z" stroke="#090a0b" stroke-linecap="square" stroke-linejoin="round" stroke-width="1.5"/></svg>

<svg width="24" height="24" viewBox="0 0 24 24" fill="none" xmlns="http://www.w3.org/2000/svg">
<path d="M3.2957 20.6025L9.6597 14.2385M9.6597 14.2385C9.52036 14.0992 9.40983 13.9339 9.33439 13.7519C9.25896 13.5699 9.22012 13.3748 9.22007 13.1778C9.22002 12.9808 9.25878 12.7858 9.33412 12.6037C9.40947 12.4217 9.51993 12.2563 9.6592 12.117C9.79846 11.9776 9.96381 11.8671 10.1458 11.7917C10.3278 11.7162 10.5228 11.6774 10.7198 11.6774C10.9168 11.6773 11.1119 11.7161 11.2939 11.7914C11.476 11.8668 11.6414 11.9772 11.7807 12.1165C12.0621 12.3977 12.2202 12.7793 12.2203 13.1771C12.2204 13.575 12.0625 13.9566 11.7812 14.238C11.4999 14.5194 11.1184 14.6775 10.7206 14.6776C10.3227 14.6777 9.94109 14.5197 9.6597 14.2385ZM17.7917 11.0565L20.6197 8.22748C20.9946 7.85242 21.2053 7.34381 21.2053 6.81348C21.2053 6.28315 20.9946 5.77453 20.6197 5.39948L18.4997 3.27748C18.314 3.09168 18.0935 2.94428 17.8507 2.84372C17.608 2.74316 17.3479 2.69141 17.0852 2.69141C16.8225 2.69141 16.5623 2.74316 16.3196 2.84372C16.0769 2.94428 15.8564 3.09168 15.6707 3.27748L12.8427 6.10648M17.6737 11.4085L15.7687 17.1235C15.7383 17.2151 15.6862 17.298 15.617 17.3652C15.5477 17.4324 15.4632 17.4819 15.3707 17.5095L3.6927 20.9805C3.58749 21.0117 3.47572 21.0135 3.36957 20.9857C3.26341 20.9578 3.16693 20.9014 3.09062 20.8225C3.01432 20.7436 2.96111 20.6453 2.93679 20.5383C2.91247 20.4312 2.91797 20.3196 2.9527 20.2155L6.7447 8.84148C6.77187 8.75981 6.8163 8.68495 6.87497 8.62197C6.93363 8.55899 7.00516 8.50937 7.0847 8.47648L12.4717 6.25848C12.5812 6.21325 12.7017 6.20146 12.8179 6.22459C12.9341 6.24773 13.0409 6.30475 13.1247 6.38848L17.5287 10.7935C17.6077 10.8724 17.6631 10.9717 17.6887 11.0803C17.7143 11.189 17.7091 11.3026 17.6737 11.4085Z" stroke="#090A0B" stroke-width="1.5" stroke-linecap="square" stroke-linejoin="round"/>
</svg>
